icons/cloud/cloud-sun-rain.svg

<svg width="14" height="14" viewBox="0 0 14 14" fill="none"
    xmlns="http://www.w3.org/2000/svg">
    <g clip-path="url(#clip0_15_984)">
        <path d="M4.63733 4.65491C5.36068 3.93173 6.51792 3.91654 7.26233 4.59729C7.01868 4.72805 6.78407 4.88284 6.56116 5.06116C6.5051 5.10601 6.45073 5.15266 6.39709 5.19983C6.05804 5.0239 5.62971 5.07674 5.34436 5.36194C5.0024 5.7039 4.99374 6.25223 5.31604 6.60608C5.25256 6.73372 5.19362 6.86363 5.14221 6.9967H4.73792C4.61651 6.9967 4.49591 7.00386 4.37659 7.01624C3.91041 6.28103 3.99609 5.29615 4.63733 4.65491Z" fill="blue"/>
        <path d="M6 3V1M8.12132 3.87868L9.53553 2.46447M3 6H1M3.87868 3.87868L2.46447 2.46446" stroke="blue" stroke-linecap="round" stroke-linejoin="round"/>
        <path d="M6.3333 9.49677V8.65483C6.3333 7.71218 6.76179 6.82063 7.49788 6.23176V6.23176C8.73255 5.24403 10.5125 5.34261 11.6305 6.46065L11.9642 6.79431C12.9809 7.811 13.2329 9.3642 12.5899 10.6502L12.3375 11.1551C11.9263 11.9774 11.0859 12.4968 10.1666 12.4968V12.4968M6.3333 8.49677H4.7375C4.0685 8.49677 3.44365 8.8314 3.07268 9.38812C2.62505 10.0599 2.62507 10.9351 3.07298 11.6067L3.11175 11.6648C3.45842 12.1846 4.04187 12.4968 4.66663 12.4968" stroke="red" stroke-linecap="round" stroke-linejoin="round"/>
        <path d="M6 11V12M7.51267 12V13M9 11V12" stroke="green" stroke-linecap="round" stroke-linejoin="round"/>
    </g>
    <defs>
        <clipPath id="clip0_15_984">
            <rect width="14" height="14" fill="white"/>
        </clipPath>
    </defs>
</svg>

<svg xmlns="http://www.w3.org/2000/svg" width="14" height="14" fill="none" viewBox="0 0 14 14"><g clip-path="url(#a)"><path fill="#00f" d="M4.637 4.655a1.9 1.9 0 0 1 2.625-.058 4.6 4.6 0 0 0-.865.603.902.902 0 0 0-1.081 1.406 5 5 0 0 0-.174.39h-.404q-.182.001-.361.02a1.9 1.9 0 0 1 .26-2.361"/><path stroke="#00f" stroke-linecap="round" stroke-linejoin="round" d="M6 3V1m2.121 2.879 1.415-1.415M3 6H1m2.879-2.121L2.464 2.464"/><path stroke="red" stroke-linecap="round" stroke-linejoin="round" d="M6.333 9.497v-.842c0-.943.429-1.834 1.165-2.423v0a3.103 3.103 0 0 1 4.132.229l.334.333a3.34 3.34 0 0 1 .626 3.856l-.252.505a2.43 2.43 0 0 1-2.171 1.342v0m-3.834-4H4.737a2 2 0 0 0-1.664 3.11l.039.058c.346.52.93.832 1.555.832"/><path stroke="green" stroke-linecap="round" stroke-linejoin="round" d="M6 11v1m1.513 0v1M9 11v1"/></g><defs><clipPath id="a"><path fill="#fff" d="M0 0h14v14H0z"/></clipPath></defs></svg>
